;FLAVOR:Marlin
;TIME:1540
;Filament used: 1.10769m
;Layer height: 0.28
;MINX:93.001
;MINY:80.791
;MINZ:0.28
;MAXX:146.999
;MAXY:139.213
;MAXZ:12.04
;TARGET_MACHINE.NAME:Creality Ender-3 Pro
;Generated with Cura_SteamEngine 5.6.0
M82 ;absolute extrusion mode
; Ender 3 Custom Start G-code
G92 E0 ; Reset Extruder
G28 ; Home all axes
G1 Z5.0 F3000 ; Move Z Axis up a bit during heating to not damage bed
M104 S175 ; Start heating up the nozzle most of the way
M190 S60 ; Start heating the bed, wait until target temperature reached
M109 S200 ; Finish heating the nozzle
G1 Z2.0 F3000 ; Move Z Axis up little to prevent scratching of Heat Bed
G1 X0.1 Y20 Z0.3 F5000.0 ; Move to start position
G1 X0.1 Y200.0 Z0.3 F1500.0 E15 ; Draw the first line
G1 X0.4 Y200.0 Z0.3 F5000.0 ; Move to side a little
G1 X0.4 Y20 Z0.3 F1500.0 E30 ; Draw the second line
G92 E0 ; Reset Extruder
G1 Z2.0 F3000 ; Move Z Axis up little to prevent scratching of Heat Bed
G1 X5 Y20 Z0.3 F5000.0 ; Move over to prevent blob squish
G92 E0
G92 E0
G1 F1500 E-6.5
;LAYER_COUNT:43
;LAYER:0
M107
G0 F6000 X97.662 Y86.397 Z0.28
;TYPE:SKIRT
G1 F1500 E0
G1 F1200 X98.709 Y85.278 E0.10704
G1 X99.26 Y84.716 E0.16201
G1 X99.962 Y84.062 E0.22902
G1 X100.804 Y83.405 E0.30362
G1 X101.656 Y82.856 E0.37441
G1 X102.506 Y82.407 E0.44155
G1 X103.477 Y81.998 E0.51514
G1 X104.205 Y81.757 E0.56871
G1 X105.389 Y81.414 E0.6548
G1 X106.321 Y81.166 E0.72217
G1 X107.288 Y80.958 E0.79125
G1 X108.343 Y80.826 E0.86552
G1 X109.297 Y80.791 E0.93219
G1 X110.132 Y80.826 E0.99057
G1 X111.027 Y80.898 E1.05328
G1 X112.213 Y81.009 E1.13648
G1 X114.718 Y81.174 E1.31182
G1 X117.234 Y81.268 E1.48768
G1 X119.744 Y81.292 E1.663
G1 X122.26 Y81.244 E1.83877
G1 X124.708 Y81.129 E2.00994
G1 X127.37 Y80.923 E2.19643
G1 X128.307 Y80.839 E2.26214
G1 X129.372 Y80.795 E2.33658
G1 X130.385 Y80.841 E2.40741
G1 X131.336 Y80.968 E2.47443
G1 X132.247 Y81.167 E2.53956
G1 X133.65 Y81.54 E2.64095
G1 X134.475 Y81.786 E2.70108
G1 X135.432 Y82.121 E2.7719
G1 X136.354 Y82.539 E2.84261
G1 X137.146 Y82.982 E2.906
G1 X138.072 Y83.612 E2.98422
G1 X138.843 Y84.247 E3.05399
G1 X139.344 Y84.726 E3.1024
G1 X140.118 Y85.522 E3.17995
G1 X140.923 Y86.386 E3.26243
G1 X141.545 Y87.118 E3.32952
G1 X142.162 Y87.988 E3.40402
G1 X142.621 Y88.771 E3.46741
G1 X143.091 Y89.76 E3.54389
G1 X143.295 Y90.284 E3.58317
G1 X143.893 Y91.94 E3.70615
G1 X144.786 Y94.272 E3.88056
G1 X146.118 Y97.461 E4.12195
G1 X146.463 Y98.414 E4.19274
G1 X146.712 Y99.342 E4.25985
G1 X146.896 Y100.397 E4.33465
G1 X146.984 Y101.49 E4.41124
G1 X146.999 Y102.131 E4.45602
G1 X146.999 Y117.621 E5.53794
G1 X146.986 Y118.383 E5.59117
G1 X146.932 Y119.289 E5.65457
G1 X146.766 Y120.396 E5.73275
G1 X146.52 Y121.394 E5.80454
G1 X146.123 Y122.526 E5.88833
G1 X145.265 Y124.597 E6.04491
G1 X144.356 Y126.953 E6.22129
G1 X143.842 Y128.426 E6.33025
G1 X143.356 Y129.779 E6.43067
G1 X142.958 Y130.738 E6.50319
G1 X142.489 Y131.637 E6.57401
G1 X141.942 Y132.491 E6.64485
G1 X141.361 Y133.247 E6.71144
G1 X140.808 Y133.863 E6.76926
G1 X140.262 Y134.427 E6.82409
G1 X139.227 Y135.448 E6.92564
G1 X138.472 Y136.122 E6.99633
G1 X137.702 Y136.698 E7.06349
G1 X136.841 Y137.233 E7.13429
G1 X135.984 Y137.668 E7.20142
G1 X134.967 Y138.075 E7.27793
G1 X134.427 Y138.248 E7.31754
G1 X133.036 Y138.651 E7.41869
G1 X132.311 Y138.842 E7.47106
G1 X131.371 Y139.044 E7.53821
G1 X130.316 Y139.176 E7.61247
G1 X129.409 Y139.211 E7.67587
G1 X128.505 Y139.174 E7.73906
G1 X126.29 Y138.976 E7.89439
G1 X123.789 Y138.813 E8.06945
G1 X121.273 Y138.719 E8.2453
G1 X118.764 Y138.695 E8.42055
G1 X116.251 Y138.744 E8.59611
G1 X113.791 Y138.862 E8.76813
G1 X111.232 Y139.056 E8.94738
G1 X109.993 Y139.167 E9.03427
G1 X108.984 Y139.212 E9.10481
G1 X108.28 Y139.213 E9.15398
G1 X107.213 Y139.164 E9.22859
G1 X106.203 Y139.026 E9.29979
G1 X105.173 Y138.79 E9.37359
G1 X104.123 Y138.494 E9.44979
G1 X103.089 Y138.175 E9.52537
G1 X102.138 Y137.829 E9.59605
G1 X101.314 Y137.448 E9.65946
G1 X100.343 Y136.889 E9.73772
G1 X99.548 Y136.331 E9.80556
G1 X98.488 Y135.411 E9.90359
G1 X97.527 Y134.466 E9.99773
G1 X96.904 Y133.829 E10.05997
G1 X96.263 Y133.109 E10.1273
G1 X95.594 Y132.21 E10.20557
G1 X95.067 Y131.344 E10.27637
G1 X94.615 Y130.424 E10.34797
G1 X94.191 Y129.306 E10.43148
G1 X94.019 Y128.764 E10.4712
G1 X93.561 Y127.163 E10.58751
G1 X93.331 Y126.178 E10.65816
G1 X93.2 Y125.28 E10.72155
G1 X93.135 Y124.122 E10.80256
G1 X93.124 Y121.83 E10.96264
G1 X93.006 Y118.184 E11.21744
G1 X93.001 Y102.376 E12.32157
G1 X93.014 Y101.616 E12.37466
G1 X93.08 Y100.601 E12.4457
G1 X93.237 Y99.585 E12.51751
G1 X93.78 Y96.876 E12.71049
G1 X94.274 Y93.976 E12.91596
G1 X94.501 Y92.959 E12.98874
G1 X94.815 Y91.831 E13.07052
G1 X95.122 Y90.818 E13.14445
G1 X95.423 Y89.961 E13.2079
G1 X95.885 Y88.942 E13.28604
G1 X96.387 Y88.061 E13.35687
G1 X96.97 Y87.222 E13.42823
G1 X97.662 Y86.397 E13.50344
G0 F6000 X98.122 Y86.783
G1 F1200 X99.138 Y85.698 E13.60726
G1 X99.67 Y85.154 E13.6604
G1 X100.332 Y84.534 E13.72375
G1 X101.13 Y83.909 E13.79455
G1 X101.936 Y83.387 E13.86162
G1 X102.786 Y82.938 E13.92877
G1 X103.666 Y82.568 E13.99544
G1 X104.394 Y82.327 E14.04901
G1 X105.544 Y81.994 E14.13263
G1 X106.447 Y81.753 E14.19791
G1 X107.414 Y81.545 E14.26699
G1 X108.366 Y81.426 E14.334
G1 X109.273 Y81.391 E14.3974
G1 X110.084 Y81.424 E14.45409
G1 X110.971 Y81.495 E14.51625
G1 X112.174 Y81.608 E14.60064
G1 X114.692 Y81.774 E14.7769
G1 X117.212 Y81.868 E14.95303
G1 X119.749 Y81.892 E15.13024
G1 X122.271 Y81.844 E15.30642
G1 X124.749 Y81.727 E15.4797
G1 X127.424 Y81.521 E15.66709
G1 X128.361 Y81.437 E15.7328
G1 X129.346 Y81.394 E15.80166
G1 X130.306 Y81.436 E15.86878
G1 X131.257 Y81.563 E15.93579
G1 X132.093 Y81.747 E15.99558
G1 X133.479 Y82.115 E16.09574
G1 X134.278 Y82.353 E16.15397
G1 X135.185 Y82.668 E16.22103
G1 X136.061 Y83.063 E16.28815
G1 X136.853 Y83.506 E16.35153
G1 X137.691 Y84.076 E16.42232
G1 X138.428 Y84.681 E16.48892
G1 X138.929 Y85.16 E16.53734
G1 X139.679 Y85.931 E16.61246
G1 X140.466 Y86.775 E16.69307
G1 X141.088 Y87.507 E16.76016
G1 X141.644 Y88.291 E16.82729
G1 X142.103 Y89.074 E16.89068
G1 X142.532 Y89.978 E16.96057
G1 X142.731 Y90.488 E16.99881
G1 X143.333 Y92.154 E17.12254
G1 X144.232 Y94.503 E17.29821
G1 X145.554 Y97.667 E17.53772
G1 X145.883 Y98.569 E17.60478
G1 X146.132 Y99.497 E17.67189
G1 X146.298 Y100.446 E17.73918
G1 X146.384 Y101.504 E17.81332
G1 X146.399 Y102.145 E17.85811
G1 X146.399 Y117.611 E18.93835
G1 X146.387 Y118.347 E18.98976
G1 X146.333 Y119.253 E19.05316
G1 X146.183 Y120.254 E19.12385
G1 X145.954 Y121.195 E19.1915
G1 X145.557 Y122.327 E19.27529
G1 X144.705 Y124.381 E19.4306
G1 X143.789 Y126.755 E19.60833
G1 X143.277 Y128.223 E19.71692
G1 X142.801 Y129.55 E19.81539
G1 X142.425 Y130.462 E19.88429
G1 X141.983 Y131.314 E19.95133
G1 X141.466 Y132.125 E20.01851
G1 X140.885 Y132.881 E20.08511
G1 X140.377 Y133.446 E20.13818
G1 X139.841 Y134 E20.19202
G1 X138.826 Y135.001 E20.29159
G1 X138.111 Y135.642 E20.35866
G1 X137.385 Y136.188 E20.42211
G1 X136.524 Y136.723 E20.49291
G1 X135.714 Y137.132 E20.55629
G1 X134.784 Y137.504 E20.62625
G1 X134.26 Y137.672 E20.66468
G1 X132.883 Y138.071 E20.76482
G1 X132.185 Y138.255 E20.81523
G1 X131.245 Y138.457 E20.88239
G1 X130.293 Y138.576 E20.9494
G1 X129.386 Y138.611 E21.0128
G1 X128.554 Y138.576 E21.07096
G1 X127.778 Y138.513 E21.12534
G1 X126.329 Y138.377 E21.22699
G1 X123.815 Y138.213 E21.40296
G1 X121.295 Y138.119 E21.57909
G1 X118.758 Y138.095 E21.7563
G1 X116.239 Y138.144 E21.93228
G1 X113.754 Y138.263 E22.10605
G1 X111.178 Y138.458 E22.28648
G1 X109.939 Y138.569 E22.37337
G1 X108.983 Y138.612 E22.44021
G1 X108.279 Y138.613 E22.48938
G1 X107.293 Y138.569 E22.55832
G1 X106.337 Y138.441 E22.62569
G1 X105.307 Y138.205 E22.69949
G1 X104.3 Y137.921 E22.77257
G1 X103.293 Y137.611 E22.84617
G1 X102.39 Y137.284 E22.91324
G1 X101.566 Y136.903 E22.97665
G1 X100.688 Y136.398 E23.0474
G1 X99.893 Y135.84 E23.11524
G1 X98.909 Y134.983 E23.20638
G1 X97.956 Y134.046 E23.29973
G1 X97.333 Y133.409 E23.36196
G1 X96.711 Y132.71 E23.42731
G1 X96.106 Y131.897 E23.4981
G1 X95.605 Y131.078 E23.56516
G1 X95.176 Y130.211 E23.63272
G1 X94.763 Y129.124 E23.71394
G1 X94.596 Y128.599 E23.75242
G1 X94.145 Y127.026 E23.86671
G1 X93.925 Y126.091 E23.9338
G1 X93.794 Y125.193 E23.99719
G1 X93.735 Y124.119 E24.07232
G1 X93.724 Y121.81 E24.23359
G1 X93.606 Y118.184 E24.48699
G1 X93.601 Y102.386 E25.59042
G1 X93.613 Y101.653 E25.64163
G1 X93.673 Y100.692 E25.70888
G1 X93.825 Y99.703 E25.77877
G1 X94.372 Y96.977 E25.97296
G1 X94.86 Y94.107 E26.1763
G1 X95.087 Y93.09 E26.24908
G1 X95.389 Y92.005 E26.32775
G1 X95.688 Y91.017 E26.39985
G1 X95.989 Y90.16 E26.46329
G1 X96.407 Y89.238 E26.534
G1 X96.881 Y88.402 E26.60112
G1 X97.43 Y87.608 E26.66854
G1 X98.122 Y86.783 E26.74375
G0 F6000 X98.582 Y87.169
G1 F1200 X99.567 Y86.117 E26.84441
G1 X100.08 Y85.592 E26.89568
G1 X100.742 Y84.972 E26.95903
G1 X101.457 Y84.412 E27.02247
G1 X102.217 Y83.917 E27.08582
G1 X103.019 Y83.491 E27.14924
G1 X103.855 Y83.138 E27.21263
G1 X104.583 Y82.897 E27.26619
G1 X105.699 Y82.574 E27.34734
G1 X106.602 Y82.333 E27.41262
G1 X107.489 Y82.14 E27.47602
G1 X108.389 Y82.026 E27.53938
G1 X109.296 Y81.991 E27.60278
G1 X110.036 Y82.022 E27.65451
G1 X110.915 Y82.092 E27.7161
G1 X112.134 Y82.207 E27.80162
G1 X114.663 Y82.374 E27.97865
G1 X117.19 Y82.468 E28.15527
G1 X119.754 Y82.492 E28.33437
G1 X122.282 Y82.444 E28.51097
G1 X124.79 Y82.325 E28.68634
G1 X127.478 Y82.119 E28.87464
G1 X128.415 Y82.035 E28.94035
G1 X129.321 Y81.993 E29.0037
G1 X130.228 Y82.031 E29.0671
G1 X131.128 Y82.149 E29.1305
G1 X131.939 Y82.327 E29.1885
G1 X133.308 Y82.69 E29.28742
G1 X134.082 Y82.92 E29.34382
G1 X134.94 Y83.216 E29.40721
G1 X135.768 Y83.587 E29.47058
G1 X136.56 Y84.03 E29.53397
G1 X137.311 Y84.54 E29.59737
G1 X138.013 Y85.115 E29.66075
G1 X138.514 Y85.594 E29.70917
G1 X139.24 Y86.34 E29.78187
G1 X140.01 Y87.165 E29.8607
G1 X140.599 Y87.855 E29.92406
G1 X141.126 Y88.594 E29.98746
G1 X141.585 Y89.377 E30.05085
G1 X141.973 Y90.197 E30.11421
G1 X142.167 Y90.692 E30.15135
G1 X142.773 Y92.368 E30.27583
G1 X143.678 Y94.734 E30.45276
G1 X144.991 Y97.874 E30.69048
G1 X145.304 Y98.726 E30.75388
G1 X145.541 Y99.602 E30.81726
G1 X145.7 Y100.495 E30.88062
G1 X145.784 Y101.518 E30.95231
G1 X145.799 Y102.159 E30.99709
G1 X145.799 Y117.602 E32.07573
G1 X145.788 Y118.311 E32.12526
G1 X145.734 Y119.217 E32.18865
G1 X145.6 Y120.114 E32.252
G1 X145.388 Y120.997 E32.31542
G1 X145.003 Y122.097 E32.39682
G1 X144.145 Y124.165 E32.55321
G1 X143.229 Y126.539 E32.73094
G1 X142.712 Y128.02 E32.8405
G1 X142.236 Y129.347 E32.93897
G1 X141.892 Y130.187 E33.00237
G1 X141.476 Y130.993 E33.06572
G1 X140.99 Y131.76 E33.12914
G1 X140.439 Y132.48 E33.19247
G1 X139.946 Y133.029 E33.244
G1 X139.42 Y133.573 E33.29686
G1 X138.424 Y134.555 E33.39455
G1 X137.75 Y135.162 E33.45791
G1 X137.024 Y135.708 E33.52135
G1 X136.254 Y136.187 E33.58469
G1 X135.444 Y136.596 E33.64807
G1 X134.601 Y136.933 E33.71148
G1 X134.093 Y137.096 E33.74875
G1 X132.73 Y137.491 E33.84786
G1 X132.057 Y137.669 E33.89649
G1 X131.17 Y137.862 E33.95989
G1 X130.27 Y137.976 E34.02325
G1 X129.363 Y138.011 E34.08665
G1 X128.602 Y137.978 E34.13985
G1 X127.834 Y137.916 E34.19367
G1 X126.368 Y137.778 E34.29652
G1 X123.841 Y137.613 E34.4734
G1 X121.317 Y137.519 E34.64981
G1 X118.752 Y137.495 E34.82897
G1 X116.227 Y137.544 E35.00537
G1 X113.717 Y137.664 E35.18088
G1 X111.124 Y137.86 E35.36251
G1 X109.885 Y137.971 E35.4494
G1 X108.982 Y138.012 E35.51253
G1 X108.278 Y138.013 E35.5617
G1 X107.371 Y137.974 E35.62511
G1 X106.471 Y137.856 E35.68851
G1 X105.47 Y137.627 E35.76024
G1 X104.476 Y137.347 E35.83236
G1 X103.496 Y137.046 E35.90397
G1 X102.642 Y136.739 E35.96736
G1 X101.818 Y136.358 E36.03076
G1 X101.031 Y135.906 E36.09415
G1 X100.287 Y135.387 E36.15751
G1 X99.33 Y134.555 E36.24609
G1 X98.385 Y133.626 E36.33864
G1 X97.762 Y132.989 E36.40088
G1 X97.159 Y132.311 E36.46425
G1 X96.617 Y131.583 E36.52765
G1 X96.142 Y130.81 E36.59102
G1 X95.737 Y129.998 E36.65439
G1 X95.324 Y128.911 E36.73561
G1 X95.173 Y128.433 E36.77063
G1 X94.729 Y126.887 E36.88297
G1 X94.519 Y126.004 E36.94637
G1 X94.388 Y125.106 E37.00975
G1 X94.335 Y124.116 E37.079
G1 X94.324 Y121.79 E37.24146
G1 X94.206 Y118.184 E37.49346
G1 X94.201 Y102.395 E38.59627
G1 X94.212 Y101.689 E38.64558
G1 X94.266 Y100.783 E38.70898
G1 X94.413 Y99.821 E38.77695
G1 X94.964 Y97.077 E38.97243
G1 X95.446 Y94.238 E39.17357
G1 X95.673 Y93.221 E39.24635
G1 X95.963 Y92.179 E39.32189
G1 X96.254 Y91.216 E39.39216
G1 X96.555 Y90.359 E39.4556
G1 X96.93 Y89.533 E39.51896
G1 X97.376 Y88.742 E39.58239
G1 X97.89 Y87.994 E39.64578
G1 X98.582 Y87.169 E39.72099
G1 F1500 E33.22099
G0 F6000 X106.373 Y94.344
G1 F1500 E39.72099
G1 F1200 X107.573 Y93.08 E39.84272
G1 X109.231 Y92.615 E39.963
G1 X110.889 Y93.08 E40.08327
G1 X112.089 Y94.344 E40.20501
G1 X112.553 Y95.934 E40.32069
G1 X112.088 Y97.596 E40.44124
G1 X110.891 Y98.793 E40.55947
G1 X109.232 Y99.258 E40.67981
G1 X107.645 Y98.794 E40.7953
G1 X106.373 Y97.522 E40.92094
G1 X105.909 Y95.936 E41.03636
G1 X106.373 Y94.344 E41.15219
G0 F6000 X106.909 Y94.651
G1 F1200 X107.895 Y93.612 E41.25223
G1 X109.231 Y93.237 E41.34915
G1 X110.567 Y93.612 E41.44607
G1 X111.553 Y94.651 E41.54612
G1 X111.929 Y95.937 E41.6397
G1 X111.552 Y97.284 E41.7374
G1 X110.579 Y98.257 E41.83351
G1 X109.235 Y98.633 E41.93099
G1 X107.959 Y98.26 E42.02384
G1 X106.907 Y97.208 E42.12776
G1 X106.534 Y95.935 E42.22041
G1 X106.909 Y94.651 E42.31384
G0 F6000 X107.444 Y94.959
G1 F1200 X108.215 Y94.146 E42.3921
G1 X109.231 Y93.861 E42.4658
G1 X110.247 Y94.146 E42.53951
G1 X111.018 Y94.959 E42.61776
G1 X111.305 Y95.941 E42.68922
G1 X111.017 Y96.969 E42.76379
G1 X110.263 Y97.723 E42.83827
G1 X109.24 Y98.01 E42.91248
G1 X108.277 Y97.728 E42.98257
G1 X107.438 Y96.889 E43.06544
G1 X107.159 Y95.936 E43.1348
G1 X107.444 Y94.959 E43.20588
G0 F6000 X107.979 Y95.266
G1 F1200 X108.536 Y94.68 E43.26235
G1 X109.231 Y94.484 E43.31279
G1 X109.926 Y94.68 E43.36322
G1 X110.483 Y95.266 E43.41969
G1 X110.681 Y95.946 E43.46916
G1 X110.482 Y96.656 E43.52066
G1 X109.95 Y97.188 E43.57321
G1 X109.242 Y97.386 E43.62456
G1 X108.593 Y97.196 E43.67179
G1 X107.971 Y96.574 E43.73323
G1 X107.784 Y95.936 E43.77967
G1 X107.979 Y95.266 E43.82841
G0 F6000 X108.515 Y95.573
G1 F1200 X108.858 Y95.212 E43.86319
G1 X109.231 Y95.107 E43.89026
G1 X109.604 Y95.212 E43.91732
G1 X109.947 Y95.573 E43.9521
G1 X110.057 Y95.949 E43.97947
G1 X109.946 Y96.344 E44.00812
G1 X109.638 Y96.652 E44.03855
G1 X109.245 Y96.762 E44.06705
G1 X108.908 Y96.663 E44.09158
G1 X108.504 Y96.259 E44.13149
G1 X108.409 Y95.935 E44.15507
G1 X108.515 Y95.573 E44.18142
G0 F6000 X109.05 Y95.882
G1 F1200 X109.18 Y95.745 E44.19461
G1 X109.231 Y95.73 E44.19832
G1 X109.282 Y95.745 E44.20204
G1 X109.412 Y95.881 E44.21518
G1 X109.433 Y95.953 E44.22042
G1 X109.411 Y96.031 E44.22608
G1 X109.326 Y96.116 E44.23447
G1 X109.249 Y96.137 E44.24005
G1 X109.223 Y96.13 E44.24193
G1 X109.037 Y95.944 E44.2603
G1 X109.034 Y95.935 E44.26096
G1 X109.05 Y95.882 E44.26483
G1 F1500 E37.76483
G0 F6000 X126.042 Y95.936
G1 F1500 E44.26483
G1 F1200 X126.506 Y94.344 E44.38065
G1 X127.706 Y93.08 E44.50239
G1 X129.364 Y92.615 E44.62266
G1 X131.022 Y93.08 E44.74293
G1 X132.222 Y94.344 E44.86467
G1 X132.686 Y95.934 E44.98036
G1 X132.221 Y97.596 E45.1009
G1 X131.024 Y98.793 E45.21914
G1 X129.365 Y99.258 E45.33948
G1 X127.778 Y98.794 E45.45496
G1 X126.506 Y97.522 E45.58061
G1 X126.042 Y95.936 E45.69603
G0 F6000 X126.667 Y95.935
G1 F1200 X127.042 Y94.651 E45.78946
G1 X128.028 Y93.612 E45.8895
