;FLAVOR:Marlin
;TIME:913
;Filament used: 0.883889m
;Layer height: 0.28
;MINX:92.5
;MINY:85.548
;MINZ:0.28
;MAXX:157.996
;MAXY:133.999
;MAXZ:10.92
;TARGET_MACHINE.NAME:Creality Ender-3 Pro
;Generated with Cura_SteamEngine 5.6.0
M82 ;absolute extrusion mode
; Ender 3 Custom Start G-code
G92 E0 ; Reset Extruder
G28 ; Home all axes
G1 Z5.0 F3000 ; Move Z Axis up a bit during heating to not damage bed
M104 S175 ; Start heating up the nozzle most of the way
M190 S60 ; Start heating the bed, wait until target temperature reached
M109 S200 ; Finish heating the nozzle
G1 Z2.0 F3000 ; Move Z Axis up little to prevent scratching of Heat Bed
G1 X0.1 Y20 Z0.3 F5000.0 ; Move to start position
G1 X0.1 Y200.0 Z0.3 F1500.0 E15 ; Draw the first line
G1 X0.4 Y200.0 Z0.3 F5000.0 ; Move to side a little
G1 X0.4 Y20 Z0.3 F1500.0 E30 ; Draw the second line
G92 E0 ; Reset Extruder
G1 Z2.0 F3000 ; Move Z Axis up little to prevent scratching of Heat Bed
G1 X5 Y20 Z0.3 F5000.0 ; Move over to prevent blob squish
G92 E0
G92 E0
G1 F1500 E-6.5
;LAYER_COUNT:39
;LAYER:0
M107
G0 F6000 X95.398 Y89.889 Z0.28
;TYPE:SKIRT
G1 F1500 E0
G1 F1200 X96.064 Y89.196 E0.06713
G1 X96.785 Y88.563 E0.13415
G1 X97.69 Y87.902 E0.21242
G1 X98.557 Y87.385 E0.28293
G1 X99.372 Y86.986 E0.34631
G1 X100.418 Y86.585 E0.42455
G1 X101.29 Y86.336 E0.48789
G1 X102.407 Y86.123 E0.56732
G1 X103.7 Y86.013 E0.65795
G1 X104.446 Y86.001 E0.71007
G1 X105.701 Y86.015 E0.79773
G1 X106.769 Y86.081 E0.87247
G1 X109.687 Y86.414 E1.0776
G1 X112.209 Y86.629 E1.25439
G1 X114.688 Y86.768 E1.42781
G1 X117.223 Y86.84 E1.60495
G1 X119.683 Y86.84 E1.77677
G1 X122.237 Y86.768 E1.95523
G1 X124.671 Y86.629 E2.12551
G1 X127.231 Y86.411 E2.30496
G1 X129.661 Y86.136 E2.47577
G1 X132.939 Y85.666 E2.70707
G1 X134.195 Y85.561 E2.7951
G1 X134.934 Y85.548 E2.84673
G1 X136.171 Y85.561 E2.93313
G1 X137.168 Y85.618 E3.00288
G1 X137.883 Y85.712 E3.05325
G1 X138.226 Y85.77 E3.07755
G1 X139.165 Y85.97 E3.14461
G1 X140.2 Y86.29 E3.22027
G1 X141.361 Y86.78 E3.30829
G1 X142.455 Y87.317 E3.39341
G1 X143.27 Y87.731 E3.45726
G1 X145.532 Y88.801 E3.63204
G1 X147.77 Y89.783 E3.80274
G1 X148.878 Y90.228 E3.88614
G1 X149.178 Y90.363 E3.90911
G1 X150.149 Y90.758 E3.98233
G1 X150.854 Y91.074 E4.03629
G1 X151.164 Y91.227 E4.06044
G1 X151.96 Y91.662 E4.1238
G1 X152.804 Y92.22 E4.19447
G1 X153.673 Y92.915 E4.27219
G1 X154.32 Y93.528 E4.33444
G1 X155.06 Y94.322 E4.41025
G1 X155.619 Y95.037 E4.47364
G1 X156.221 Y95.964 E4.55084
G1 X156.624 Y96.706 E4.60982
G1 X157.026 Y97.559 E4.67568
G1 X157.411 Y98.61 E4.75386
G1 X157.668 Y99.576 E4.82368
G1 X157.808 Y100.317 E4.87635
G1 X157.936 Y101.342 E4.9485
G1 X157.972 Y102.029 E4.99655
G1 X157.996 Y103.332 E5.08758
G1 X157.995 Y116.193 E5.98587
G1 X157.981 Y117.016 E6.04336
G1 X157.927 Y117.922 E6.10675
G1 X157.785 Y118.938 E6.17841
G1 X157.601 Y119.826 E6.24175
G1 X157.277 Y120.898 E6.31997
G1 X156.902 Y121.826 E6.38988
G1 X156.538 Y122.563 E6.44729
G1 X156.027 Y123.459 E6.51934
G1 X155.403 Y124.354 E6.59554
G1 X154.488 Y125.404 E6.69282
G1 X154.209 Y125.685 E6.72048
G1 X153.441 Y126.389 E6.79325
G1 X152.638 Y127.003 E6.86385
G1 X151.769 Y127.554 E6.93572
G1 X150.716 Y128.086 E7.01812
G1 X149.586 Y128.572 E7.10404
G1 X148.341 Y129.069 E7.19767
G1 X146.032 Y130.068 E7.37339
G1 X143.75 Y131.131 E7.54923
G1 X141.377 Y132.308 E7.73424
G1 X140.449 Y132.713 E7.80496
G1 X139.474 Y133.04 E7.87679
G1 X138.226 Y133.329 E7.96626
G1 X136.98 Y133.488 E8.054
G1 X136.311 Y133.523 E8.10079
G1 X135.267 Y133.544 E8.17372
G1 X134.227 Y133.532 E8.24637
G1 X133.232 Y133.467 E8.31601
G1 X130.318 Y133.134 E8.52087
G1 X127.818 Y132.922 E8.69611
G1 X125.313 Y132.78 E8.87136
G1 X122.792 Y132.71 E9.04751
G1 X120.333 Y132.71 E9.21926
G1 X117.764 Y132.784 E9.39877
G1 X115.344 Y132.92 E9.56806
G1 X112.794 Y133.138 E9.74682
G1 X110.329 Y133.418 E9.9201
G1 X108.555 Y133.682 E10.04537
G1 X108.217 Y133.717 E10.06911
G1 X107.076 Y133.88 E10.14961
G1 X105.834 Y133.985 E10.23667
G1 X105.124 Y133.999 E10.28627
G1 X103.878 Y133.989 E10.3733
G1 X102.867 Y133.933 E10.44402
G1 X101.865 Y133.789 E10.51473
G1 X100.981 Y133.585 E10.5781
G1 X99.916 Y133.236 E10.65637
G1 X99.033 Y132.857 E10.72349
G1 X98.095 Y132.353 E10.79786
G1 X97.293 Y131.825 E10.86493
G1 X96.497 Y131.197 E10.93575
G1 X95.724 Y130.464 E11.01015
G1 X95.054 Y129.705 E11.08087
G1 X94.513 Y128.977 E11.14422
G1 X93.928 Y128.023 E11.22238
G1 X93.523 Y127.211 E11.28576
G1 X93.113 Y126.168 E11.36404
G1 X92.857 Y125.298 E11.42738
G1 X92.635 Y124.177 E11.5072
G1 X92.513 Y122.791 E11.60438
G1 X92.5 Y122.154 E11.64888
G1 X92.501 Y116.708 E12.02926
G1 X92.522 Y115.694 E12.1001
G1 X92.565 Y114.69 E12.17029
G1 X92.619 Y113.725 E12.2378
G1 X92.69 Y111.199 E12.4143
G1 X92.69 Y108.705 E12.5885
G1 X92.616 Y106.153 E12.76682
G1 X92.523 Y104.358 E12.89236
G1 X92.5 Y103.465 E12.95475
G1 X92.501 Y98.027 E13.33458
G1 X92.513 Y97.288 E13.3862
G1 X92.571 Y96.329 E13.45331
G1 X92.729 Y95.275 E13.52775
G1 X92.94 Y94.393 E13.59109
G1 X93.277 Y93.381 E13.66559
G1 X93.706 Y92.404 E13.74012
G1 X94.169 Y91.561 E13.8073
G1 X94.699 Y90.762 E13.87426
G1 X95.398 Y89.889 E13.95238
G0 F6000 X95.831 Y90.305
G1 F1200 X96.497 Y89.612 E14.01951
G1 X97.18 Y89.015 E14.08287
G1 X97.998 Y88.417 E14.15364
G1 X98.821 Y87.924 E14.22065
G1 X99.636 Y87.525 E14.28403
G1 X100.583 Y87.162 E14.35487
G1 X101.455 Y86.913 E14.41821
G1 X102.459 Y86.721 E14.48961
G1 X103.71 Y86.613 E14.57731
G1 X104.44 Y86.601 E14.6283
G1 X105.664 Y86.614 E14.7138
G1 X106.732 Y86.68 E14.78854
G1 X109.636 Y87.012 E14.99269
G1 X112.16 Y87.227 E15.16962
G1 X114.671 Y87.368 E15.34528
G1 X117.206 Y87.44 E15.52242
G1 X119.7 Y87.44 E15.69661
G1 X122.254 Y87.368 E15.87507
G1 X124.721 Y87.227 E16.04766
G1 X127.282 Y87.009 E16.22719
G1 X129.747 Y86.73 E16.40046
G1 X132.99 Y86.264 E16.62929
G1 X134.206 Y86.161 E16.71453
G1 X134.928 Y86.148 E16.76497
G1 X136.138 Y86.16 E16.84949
G1 X137.09 Y86.213 E16.91608
G1 X137.784 Y86.304 E16.96497
G1 X138.101 Y86.357 E16.98742
G1 X139.04 Y86.557 E17.05448
G1 X139.967 Y86.843 E17.12224
G1 X141.097 Y87.319 E17.20788
G1 X142.183 Y87.852 E17.29238
G1 X142.998 Y88.266 E17.35622
G1 X145.274 Y89.343 E17.53209
G1 X147.547 Y90.34 E17.70546
G1 X148.632 Y90.775 E17.7871
G1 X148.952 Y90.919 E17.81161
G1 X149.904 Y91.306 E17.88339
G1 X150.589 Y91.613 E17.93582
G1 X150.876 Y91.754 E17.95815
G1 X151.672 Y92.189 E18.02151
G1 X152.472 Y92.72 E18.08858
G1 X153.26 Y93.351 E18.15909
G1 X153.907 Y93.964 E18.22134
G1 X154.587 Y94.692 E18.29092
G1 X155.146 Y95.407 E18.35431
G1 X155.694 Y96.251 E18.4246
G1 X156.081 Y96.962 E18.48114
G1 X156.483 Y97.815 E18.547
G1 X156.831 Y98.765 E18.61767
G1 X157.078 Y99.687 E18.68434
G1 X157.218 Y100.428 E18.73701
G1 X157.337 Y101.373 E18.80353
G1 X157.372 Y102.04 E18.85019
G1 X157.396 Y103.332 E18.94044
G1 X157.395 Y116.183 E19.83804
G1 X157.382 Y116.98 E19.89371
G1 X157.328 Y117.886 E19.95711
G1 X157.197 Y118.816 E20.0227
G1 X157.013 Y119.704 E20.08605
G1 X156.72 Y120.674 E20.15682
G1 X156.364 Y121.56 E20.22351
G1 X156 Y122.297 E20.28092
G1 X155.534 Y123.117 E20.3468
G1 X154.95 Y123.96 E20.41843
G1 X154.062 Y124.981 E20.51294
G1 X153.783 Y125.262 E20.5406
G1 X153.076 Y125.913 E20.60773
G1 X152.315 Y126.497 E20.67473
G1 X151.498 Y127.018 E20.74241
G1 X150.445 Y127.55 E20.82481
G1 X149.364 Y128.015 E20.907
G1 X148.103 Y128.518 E21.00183
G1 X145.794 Y129.517 E21.17755
G1 X143.497 Y130.587 E21.35454
G1 X141.136 Y131.759 E21.53865
G1 X140.257 Y132.145 E21.6057
G1 X139.339 Y132.455 E21.67338
G1 X138.091 Y132.744 E21.76285
G1 X136.949 Y132.889 E21.84326
G1 X136.299 Y132.923 E21.88872
G1 X135.274 Y132.944 E21.96033
G1 X134.266 Y132.933 E22.03073
G1 X133.271 Y132.868 E22.10038
G1 X130.369 Y132.536 E22.3044
G1 X127.868 Y132.324 E22.47971
G1 X125.33 Y132.18 E22.65726
G1 X122.809 Y132.11 E22.83341
G1 X120.316 Y132.11 E23.00754
G1 X117.747 Y132.184 E23.18705
G1 X115.294 Y132.322 E23.35865
G1 X112.743 Y132.54 E23.53748
G1 X110.261 Y132.822 E23.71195
G1 X108.493 Y133.085 E23.8368
G1 X108.147 Y133.121 E23.8611
G1 X107.025 Y133.282 E23.94027
G1 X105.822 Y133.385 E24.0246
G1 X105.128 Y133.399 E24.07308
G1 X103.91 Y133.39 E24.15816
G1 X102.951 Y133.339 E24.22524
G1 X102 Y133.204 E24.29233
G1 X101.116 Y133 E24.35569
G1 X100.153 Y132.685 E24.42646
G1 X99.27 Y132.306 E24.49358
G1 X98.424 Y131.851 E24.56067
G1 X97.665 Y131.354 E24.62404
G1 X96.869 Y130.726 E24.69486
G1 X96.173 Y130.066 E24.76185
G1 X95.536 Y129.347 E24.82895
G1 X94.995 Y128.619 E24.8923
G1 X94.465 Y127.755 E24.96309
G1 X94.06 Y126.943 E25.02647
G1 X93.689 Y125.999 E25.09732
G1 X93.433 Y125.129 E25.16066
G1 X93.233 Y124.124 E25.23223
G1 X93.113 Y122.779 E25.32655
G1 X93.1 Y122.154 E25.37021
G1 X93.101 Y116.72 E25.74975
G1 X93.121 Y115.72 E25.81961
G1 X93.164 Y114.724 E25.88925
G1 X93.219 Y113.742 E25.95794
G1 X93.29 Y111.216 E26.13444
G1 X93.29 Y108.705 E26.30983
G1 X93.216 Y106.136 E26.48934
G1 X93.123 Y104.342 E26.61481
G1 X93.1 Y103.465 E26.67609
G1 X93.101 Y98.036 E27.05528
G1 X93.112 Y97.324 E27.10502
G1 X93.17 Y96.365 E27.17212
G1 X93.313 Y95.415 E27.23923
G1 X93.524 Y94.533 E27.30257
G1 X93.846 Y93.572 E27.37336
G1 X94.232 Y92.693 E27.44041
G1 X94.695 Y91.85 E27.50759
G1 X95.198 Y91.095 E27.57095
G1 X95.831 Y90.305 E27.64166
G0 F6000 X96.264 Y90.72
G1 F1200 X96.892 Y90.064 E27.70509
G1 X97.575 Y89.467 E27.76845
G1 X98.308 Y88.931 E27.83188
G1 X99.085 Y88.463 E27.89523
G1 X99.9 Y88.064 E27.95861
G1 X100.748 Y87.739 E28.02204
G1 X101.62 Y87.49 E28.08538
G1 X102.511 Y87.319 E28.14875
G1 X103.72 Y87.213 E28.23352
G1 X104.434 Y87.201 E28.2834
G1 X105.627 Y87.213 E28.36673
G1 X106.695 Y87.279 E28.44147
G1 X109.585 Y87.61 E28.64464
G1 X112.111 Y87.825 E28.82171
G1 X114.654 Y87.968 E28.99961
G1 X117.189 Y88.04 E29.17674
G1 X119.717 Y88.04 E29.35331
G1 X122.271 Y87.968 E29.53177
G1 X124.771 Y87.825 E29.70667
G1 X127.333 Y87.607 E29.88627
G1 X129.83 Y87.324 E30.06179
G1 X133.041 Y86.862 E30.28837
G1 X134.217 Y86.761 E30.37082
G1 X134.922 Y86.748 E30.42007
G1 X136.106 Y86.759 E30.50277
G1 X137.012 Y86.808 E30.56614
G1 X137.686 Y86.896 E30.61362
G1 X137.977 Y86.944 E30.63422
G1 X138.865 Y87.131 E30.6976
G1 X139.734 Y87.396 E30.76106
G1 X140.833 Y87.858 E30.84432
G1 X141.911 Y88.387 E30.9282
G1 X142.726 Y88.801 E30.99204
G1 X145.019 Y89.886 E31.16923
G1 X147.324 Y90.897 E31.34503
G1 X148.385 Y91.322 E31.42486
G1 X148.715 Y91.471 E31.45015
G1 X149.659 Y91.854 E31.5213
G1 X150.325 Y92.152 E31.57226
G1 X150.588 Y92.281 E31.59272
G1 X151.384 Y92.716 E31.65608
G1 X152.139 Y93.219 E31.71945
G1 X152.847 Y93.787 E31.78285
G1 X153.494 Y94.4 E31.8451
G1 X154.114 Y95.062 E31.90845
G1 X154.673 Y95.777 E31.97184
G1 X155.167 Y96.538 E32.03521
G1 X155.554 Y97.249 E32.09175
G1 X155.94 Y98.07 E32.15512
G1 X156.252 Y98.922 E32.21849
G1 X156.489 Y99.799 E32.28194
G1 X156.623 Y100.504 E32.33207
G1 X156.738 Y101.404 E32.39544
G1 X156.772 Y102.051 E32.44069
G1 X156.796 Y103.332 E32.53018
G1 X156.795 Y116.174 E33.42715
G1 X156.783 Y116.944 E33.48093
G1 X156.729 Y117.85 E33.54433
G1 X156.609 Y118.694 E33.60387
G1 X156.425 Y119.582 E33.66721
G1 X156.163 Y120.451 E33.73061
G1 X155.826 Y121.294 E33.79402
G1 X155.462 Y122.031 E33.85143
G1 X155.013 Y122.82 E33.91484
G1 X154.497 Y123.566 E33.97819
G1 X153.609 Y124.587 E34.07271
G1 X153.376 Y124.822 E34.09582
G1 X152.71 Y125.438 E34.15918
G1 X151.991 Y125.992 E34.22258
G1 X151.227 Y126.482 E34.28598
G1 X150.174 Y127.014 E34.36838
G1 X149.142 Y127.458 E34.44685
G1 X147.865 Y127.967 E34.54287
G1 X145.556 Y128.966 E34.71859
G1 X143.244 Y130.043 E34.89673
G1 X140.893 Y131.21 E35.08006
G1 X140.063 Y131.577 E35.14345
G1 X139.204 Y131.87 E35.20684
G1 X137.956 Y132.159 E35.29631
G1 X136.918 Y132.29 E35.36939
G1 X136.286 Y132.323 E35.41359
G1 X135.28 Y132.344 E35.48387
G1 X134.305 Y132.334 E35.55198
G1 X133.31 Y132.269 E35.62162
G1 X130.42 Y131.938 E35.8248
G1 X127.918 Y131.726 E36.00018
G1 X125.347 Y131.58 E36.18004
G1 X122.826 Y131.51 E36.35619
G1 X120.299 Y131.51 E36.5327
G1 X117.73 Y131.584 E36.7122
G1 X115.244 Y131.724 E36.88612
G1 X112.692 Y131.942 E37.06501
G1 X110.193 Y132.226 E37.24068
G1 X108.431 Y132.488 E37.36511
G1 X108.074 Y132.525 E37.39017
G1 X106.973 Y132.684 E37.46787
G1 X105.81 Y132.785 E37.54941
G1 X105.132 Y132.799 E37.59678
G1 X103.94 Y132.791 E37.68003
G1 X103.034 Y132.745 E37.7434
G1 X102.135 Y132.619 E37.8068
G1 X101.251 Y132.415 E37.87017
G1 X100.388 Y132.133 E37.93358
G1 X99.553 Y131.777 E37.99698
G1 X98.753 Y131.349 E38.06036
G1 X97.994 Y130.852 E38.12372
G1 X97.281 Y130.29 E38.18713
G1 X96.621 Y129.667 E38.25053
G1 X96.018 Y128.989 E38.3139
G1 X95.477 Y128.261 E38.37725
G1 X95.002 Y127.487 E38.44068
G1 X94.597 Y126.675 E38.50406
G1 X94.265 Y125.83 E38.56747
G1 X94.009 Y124.96 E38.63082
G1 X93.831 Y124.07 E38.69421
G1 X93.713 Y122.766 E38.78566
G1 X93.7 Y122.154 E38.82842
G1 X93.701 Y116.732 E39.20712
G1 X93.72 Y115.746 E39.276
G1 X93.763 Y114.758 E39.34508
G1 X93.819 Y113.759 E39.41496
G1 X93.89 Y111.233 E39.59147
G1 X93.89 Y108.705 E39.76804
G1 X93.816 Y106.119 E39.94873
G1 X93.723 Y104.326 E40.07414
G1 X93.7 Y103.465 E40.13429
G1 X93.701 Y98.045 E40.51286
G1 X93.711 Y97.359 E40.56078
G1 X93.764 Y96.453 E40.62417
G1 X93.897 Y95.555 E40.68758
G1 X94.108 Y94.673 E40.75092
G1 X94.396 Y93.812 E40.81433
G1 X94.759 Y92.98 E40.87773
G1 X95.194 Y92.183 E40.94115
G1 X95.697 Y91.428 E41.00452
G1 X96.264 Y90.72 E41.06787
G1 F1500 E34.56787
;MESH:soporte velo filet.stl
G0 F6000 X103.335 Y98.114
G0 X106.5 Y102.8
;TYPE:WALL-INNER
G1 F1500 E41.06787
G1 F901.1 X114 Y102.8 E41.76546
G0 F6000 X114.565 Y103.135
G0 X115 Y103.8
G1 F900 X115 Y116.2 E42.92026
G1 F892.2 X114.993 Y116.374 E42.93661
G0 F6000 X114.787 Y116.632
G0 X114.174 Y117.193
G1 F891.1 X114 Y117.2 E42.95299
G1 F900 X106.5 Y117.2 E43.65146
G1 F891.1 X106.326 Y117.207 E43.66784
G0 F6000 X105.23 Y117.47
G0 X105.23 Y121.23
G0 X105.532 Y121.574
G1 F1107.7 X105.575 Y121.426 E43.6795
G1 X105.575 Y118.2 E43.9236
G1 F1039 X105.658 Y117.72 E43.9629
G1 F927.8 X106.326 Y117.207 E44.03898
G1 X105.338 Y117.169 E44.1283
G1 F976.9 X104.969 Y117.169 E44.15996
G1 X104.969 Y117.538 E44.19161
G1 F1039 X104.925 Y118.2 E44.24514
G1 F1107.7 X104.925 Y121.575 E44.50051
G1 X105.532 Y121.574 E44.54644
G0 F6000 X105.23 Y121.23
G0 X105.872 Y117.572
G0 X114.174 Y117.193
G1 F1037.5 X114.828 Y117.314 E44.60018
G1 F1258.7 X115.054 Y117.286 E44.61534
G1 X115.098 Y117.227 E44.62024
G1 X115.114 Y117.028 E44.63353
G1 F1039 X114.993 Y116.374 E44.68719
G1 X114.626 Y116.826 E44.73416
G1 F1037.5 X114.174 Y117.193 E44.7812
G0 F6000 X114.628 Y116.828
G0 X115 Y103.8
G1 F970.4 X115.124 Y102.906 E44.85916
G1 F1146.5 X115.083 Y102.741 E44.87159
G1 F1260.9 X115.033 Y102.701 E44.87584
G1 X114.829 Y102.686 E44.88944
G1 F1051.1 X114 Y102.8 E44.95617
G1 X114.627 Y103.174 E45.01438
G1 X115 Y103.8 E45.07249
G0 F6000 X114.628 Y103.172
G0 X106.5 Y102.8
G1 F938.7 X105.658 Y102.28 E45.16085
G1 F1036 X105.575 Y101.922 E45.19058
G1 F1104.3 X105.575 Y98.575 E45.44462
G1 F1107.7 X105.531 Y98.425 E45.45645
G1 X104.925 Y98.425 E45.5023
G1 F1100.9 X104.929 Y102.017 E45.77577
G1 F1031.5 X104.969 Y102.462 E45.81207
G1 F976.9 X104.969 Y102.831 E45.84373
G1 X105.338 Y102.831 E45.87539
G1 F938.7 X106.5 Y102.8 E45.97918
G1 F1500 E39.47918
G0 F6000 X114.628 Y103.172
G0 X114.628 Y116.828
G0 X106.097 Y116.838
G0 X104.67 Y121.83
G0 X104.3 Y122.2
;TYPE:WALL-OUTER
G1 F1500 E45.97918
G1 F1200 X105.475 Y122.199 E46.06125
G1 X105.716 Y122.16 E46.0783
G1 X105.91 Y122.062 E46.09348
G1 X106.063 Y121.911 E46.10849
G1 X106.16 Y121.716 E46.12371
G1 X106.2 Y121.477 E46.14063
G1 X106.2 Y118.2 E46.36952
